svgs/light/user-hair.svg

<svg xmlns="http://www.w3.org/2000/svg" viewBox="0 0 448 512"><!--! Font Awesome Pro 6.3.0 by @fontawesome - https://fontawesome.com License - https://fontawesome.com/license (Commercial License) Copyright 2023 Fonticons, Inc. --><path d="M96 128C96 57.31 153.3 0 224 0C294.7 0 352 57.31 352 128V144C352 214.7 294.7 272 224 272C153.3 272 96 214.7 96 144V128zM318.7 112H288.6C273.7 112 259.5 106.1 248.1 95.6L242.7 89.33C223.4 113.5 193.1 128 162.3 128H128V144C128 197 170.1 240 224 240C277 240 320 197 320 144V128C320 122.5 319.5 117.2 318.7 112V112zM307.2 80C290.6 51.31 259.5 32 224 32C182.2 32 146.6 58.71 133.5 96H162.3C189.1 96 213.5 80.97 225.5 57.15C226.3 55.53 227.4 54.02 228.7 52.69C234.9 46.44 245.1 46.44 251.3 52.69L271.6 72.97C276.1 77.47 282.2 80 288.6 80H307.2zM0 483.6C0 393.2 73.23 320 163.6 320H284.4C374.8 320 448 393.2 448 483.6C448 499.3 435.3 512 419.6 512H28.44C12.74 512 0 499.3 0 483.6zM415.1 480C414.1 408.1 355.9 352 284.4 352H163.6C92.09 352 33.93 408.1 32.05 480H415.1z"/></svg>

<svg xmlns="http://www.w3.org/2000/svg" viewBox="0 0 448 512"><!--! Font Awesome Pro 6.4.0 by @fontawesome - https://fontawesome.com License - https://fontawesome.com/license (Commercial License) Copyright 2023 Fonticons, Inc. --><path d="M320 128c0-5.5-.5-10.8-1.3-16H288.6c-14.9 0-29.1-5.9-39.6-16.4l-6.3-6.3C223.4 113.5 194 128 162.3 128L128 128v16c0 53 43 96 96 96s96-43 96-96V128zM307.2 80C290.6 51.3 259.5 32 224 32c-41.8 0-77.4 26.7-90.5 64h28.9c26.7 0 51.2-15 63.2-38.9c.8-1.6 1.8-3.1 3.1-4.5c6.2-6.2 16.4-6.2 22.6 0L271.6 73c4.5 4.5 10.6 7 17 7h18.6zM96 128C96 57.3 153.3 0 224 0s128 57.3 128 128v16c0 70.7-57.3 128-128 128s-128-57.3-128-128V128zM32 480H416c-1.9-71-60-128-131.5-128H163.6C92.1 352 33.9 409 32 480zM0 483.6C0 393.2 73.2 320 163.6 320H284.4C374.8 320 448 393.2 448 483.6c0 15.7-12.7 28.4-28.4 28.4H28.4C12.7 512 0 499.3 0 483.6z"/></svg>
